X: 406
T: A Trip To Bavaria
R: barndance
M: 4/4
K: Amajor
|:E|EA Ac ce e2|e2 f>e ed dE|EG GB Be e2|g>f g>f fe fe|
EA Ac ce e2|e2 a>g gf f2|gf gf fe fe|e>d cB A2- A:|
|:E|EA cA EA cA|c2 d>c cB BE|EG BG EG BG|g>f g>f fe fe|
EA cA EA cA|e2 a>g gf f2|gf gf fe fe|e>d cB A2- A:|

